X: 4243
T: The PRETTY GIRL MILKING HER COW
%R: air, jig, waltz
B: James Kerr "Merry Melodies" v.4 p.26 #243
Z: 2016 John Chambers <jc:trillian.mit.edu>
M: 6/8
L: 1/8
K: Gm
(G/A/) |\
BdB AcA | GF2- FGA | BdB AcA | G3- G2 (G/A/) |\
BdB AcA | GF2- FGA | BAG DG^F | G3- G2 :|
|: A |\
Bcd fdB | AF2- FGA | Bcd fdf | g3- g2g |\
fed cdB | AF2- FGA | BAG DG^F | G3- G2 :|

%%sep 1 1 500
%%sep 1 1 500
%%center SCOTCH JIGS

%%sep 1 1 500
%%sep 1 1 500

